svgs/sharp-regular/diagram-nested.svg

<svg xmlns="http://www.w3.org/2000/svg" viewBox="0 0 448 512"><!--! Font Awesome Pro 6.6.0 by @fontawesome - https://fontawesome.com License - https://fontawesome.com/license (Commercial License) Copyright 2024 Fonticons, Inc. --><path d="M144 80l0 96-96 0 0-96 96 0zM48 32L0 32 0 80l0 96 0 48 48 0 24 0 0 160 0 24 24 0 160 0 0 24 0 48 48 0 96 0 48 0 0-48 0-96 0-48-48 0-96 0-48 0 0 48 0 24-136 0 0-136 24 0 48 0 0-48 0-96 0-48-48 0L48 32zM400 336l0 96-96 0 0-96 96 0z"/></svg>

<svg xmlns="http://www.w3.org/2000/svg" viewBox="0 0 448 512"><!--! Font Awesome Pro 6.4.2 by @fontawesome - https://fontawesome.com License - https://fontawesome.com/license (Commercial License) Copyright 2023 Fonticons, Inc. --><path d="M144 80v96H48V80h96zM48 32H0V80v96 48H48 72V384v24H96 256v24 48h48 96 48V432 336 288H400 304 256v48 24H120V224h24 48V176 80 32H144 48zM400 336v96H304V336h96z"/></svg>
